src/images/crypto-icon-svg/btm.svg

<svg xmlns="http://www.w3.org/2000/svg" width="32" height="32" viewBox="0 0 32 32">
  <g fill="none">
    <circle cx="16" cy="16" r="16" fill="#504C4C"/>
    <path fill="#FFF" d="M10.8269,15.3755 L9.0822,19.0742 L9.8942,22.1058 L11.9598,22.6579 L14.5244,25.2248 L13.7516,26 L7.64,24.36 L6,18.2484 L7.2306,17.0201 L12.5716,11.6768 L10.8269,15.3755 L9.0822,19.0742 L14.5244,13.632 L12.5716,11.6768 L10.8269,15.3755 Z M13.632,17.4756 L19.0742,22.9178 L22.1058,22.1058 L22.6602,20.0403 L25.2248,17.4756 L26,18.2484 L24.3623,24.3623 L18.2484,26 L11.6791,19.4284 L13.632,17.4756 Z M18.368,14.5244 L12.9258,9.0822 L9.8919,9.8942 L9.3399,11.9575 L6.7752,14.5244 L6,13.7516 L7.64,7.6377 L13.7516,6 L14.9799,7.2306 L20.3209,12.5693 L18.368,14.5244 Z M20.0403,9.3399 L17.4756,6.7752 L18.2484,6 L24.3623,7.6377 L26,13.7516 L19.4284,20.3209 L17.4756,18.368 L22.9201,12.9235 L22.1058,9.8919 L20.0403,9.3399 Z"/>
  </g>
</svg>

<svg xmlns="http://www.w3.org/2000/svg" width="32" height="32"><g fill="none"><circle cx="16" cy="16" r="16" fill="#504C4C"/><path fill="#FFF" d="M10.827 15.376l-1.745 3.698.812 3.032 2.066.552 2.564 2.567-.772.775-6.112-1.64L6 18.248l1.23-1.228 5.342-5.343-1.745 3.699-1.745 3.698 5.442-5.442-1.952-1.955-1.745 3.699zm2.805 2.1l5.442 5.442 3.032-.812.554-2.066 2.565-2.564.775.772-1.638 6.114L18.248 26l-6.569-6.572 1.953-1.952zm4.736-2.952l-5.442-5.442-3.034.812-.552 2.063-2.565 2.567L6 13.752l1.64-6.114L13.752 6l1.228 1.23 5.34 5.34-1.952 1.954zM20.04 9.34l-2.564-2.565.772-.775 6.114 1.638L26 13.752l-6.572 6.569-1.952-1.953 5.444-5.444-.814-3.032-2.066-.552z"/></g></svg>
